X:1
T:Vier Gesänge aus 'Wilhelm Meister' (D.877), Op.62
T:Mignon und der Harfner
T:Vier Gesänge aus 'Wilhelm Meister' (D.877), Op.62
T:1. Mignon und der Harfner
T:Franz Schubert
T:Johann Wolfgang von Goethe
T:OpenScore (CC0)
T:OpenScore (CC0)
T:OpenScore (CC0)
T:OpenScore (CC0)
T:OpenScore (CC0)
C:Franz Schubert
Z:Johann Wolfgang von Goethe
Z:OpenScore (CC0)
%%score 1 2 { ( 3 5 7 ) | ( 4 6 ) }
L:1/8
Q:1/4=62
M:2/2
K:D
V:1 treble nm="Mignon	"
V:2 treble-8 nm="Harfner"
V:3 treble nm="Pianoforte"
V:5 treble 
V:7 treble 
V:4 bass 
V:6 bass 
V:1
"^Langsam" z8 | z8 | z8 | z8 | (d3 c) (B3/2c/4B/4 ^A) B | c3 c c4 | (e3 d) (c2{dc} B) c | %7
w: ||||Nur _ wer _ _ _ die|Sehn- sucht kennt,|weiss, _ was _ ich|
 d4 d2 z2 | z2!<(! d4 c B!<)! |!>(! B3!>)! A F2 z2 | FB c d (e3 d/c/) | B2 z2 z4 | z8 | %13
w: lei- de,|nur wer die|Sehn- sucht kennt,|weiss, _ was ich lei- * *|de!||
 z2 z B B3 A | G3 =c B4 | z2 z B B3 A | (G3 =c) B2 z2 | z2 z B B2 B2 | A2!<(! B2 =c3 B!<)! | %19
w: Al- lein und|ab- ge- trennt|von al- ler|Freu- * de,|seh'  ich an's|Fir- ma- ment nach|
!>(! d2 =c2!>)! A4 | B2 z2 z4 | z8 |!pp! (=c3 G) EG EG | =c3 G E3/2 G/ E G | (=c3 G) E z z2 | %25
w: je- ner Sei-|te.||Ach, _ der _ mich _|liebt und kennt ist in der|Wei- * te,|
 =c4 c2 c2 | =f3 =c c2 z2 | z8 |!>(! B4- B!>)!A G ^F |!pp! E4 E2 z2 | z8 | z8 | %32
w: ach, der mich|liebt und kennt||ist _ _ in der|Wei- te.|||
 z2 z!mf! _d =c3/2 =F/ F z | z4 z3/2!f! d/ d/ d/ =f3/4 d/4 |{=c} B B z2 z2 z ^c | %35
w: Es schwin- delt mir,|es brennt mein Ein- ge-|wei- de, es|
 e3/2 e/ e3/2 e/ e2 ^d2 | z8 | z8 |!p! e6 d c | B3/2 ^A/ A4 z2 | (B2 f4) e d |{c} B2 B2 z4 | %42
w: brennt mein Ein- ge- wei- de.|||Nur wer die|Sehn- sucht kennt,|weiss, _ was ich|lei- de,|
 z2 d4 e f | f3/2 F/ F2 z4 | FB c d (e3 d/c/) |!pp! B2 F F (G3 F/^A/) | B2 z2 z4 | z8 | z8 | z8 |] %50
w: nur wer die|Sehn- sucht kennt,|weiss, _ was ich lei- * *|de, was ich lei- * *|de!||||
V:2
 z8 | z8 | z8 | z8 | z8 | e6 d c | B3/2 ^A/ A2 z4 | (B2 f4) e d |{c} B2 B2 z4 | z2 d4 e f | %10
w: |||||Nur wer die|Sehn- sucht kennt,|weiss, * was ich|lei- de,|nur wer die|
 f3/2 F/ F2 z4 | FB c d (e3 d/c/) | B2 z2 z4 | z4 z2 z B | B3 A G3 A | B2 z2 z2 z B | %16
w: Sehn- sucht kennt,|weiss * was ich lei- * *|de!|Al-|lein und ab- ge-|trennt von|
 B3 A (G3 =c) | B3 =d d2 d2 | =c2!<(! d2 e3 d!<)! |!>(! =f2 e2!>)! d4 | d2 z2 z4 | z8 | %22
w: al- ler Freu- *|de, seh' ich an's|Fir- ma- ment nach|je- ner Sei-|te.||
!pp! (e3 d) =cd cd | e3 d =c3/2 d/ c d | (e3 d) =c z z2 | z8 | =c4 c2 c2 | =f3 =c c4 | %28
w: Ach, _ der _ mich _|liebt und kennt ist in der|Wei- * te,||ach, der mich|liebt und kennt|
 B2 g2- g^f e B |!pp! (B3 G) E2 z2 | z8 | z8 | z8 | z3/2!mf! =c/ c/ c/ d/ _e/ d G z2 | %34
w: ist _ _ _ in der|Wei- * te.||||es brennt mein Ein- ge- wei- de,|
 z2 z =f e3/2 A/ A e | g3/2 g/ g3/2 g/ g2 ^f2 | z8 | (=d3 c) (B2{cB} ^A) B | c3 c c4 | %39
w: es schwin- delt mir, es|brennt mein Ein- ge- wei- de.||Nur _ wer _ die|Sehn- sucht kennt,|
 (e3 d) (c2{dc} B) c | d4 d2 z2 | z2 d4 c B | B3 A F2 z2 | FB c d (e3 d/c/) | B2 z2 z4 | %45
w: weiss, _ was _ ich|lei- de,|nur wer die|Sehn- sucht kennt,|weiss, * was ich lei- * *|de,|
!pp! Fd c B (G3 F) | B,2 z2 z4 | z8 | z8 | z8 |] %50
w: weiss, * was ich lei- *|de!||||
V:3
 ([DFd]3 [CEc] [B,DB]2 [^A,C^A])[B,DB] | [B,GB]4 [B,EG]4 | %2
!pp!!>(! ([EG=ce]3 [Gd]!>)! [Ec][DG][=CE][B,EG]) | [^A,EF]4 [B,DF]4 | %4
!pp!!>(! ([DFd]3 [CEc]!>)! [B,DB]2 [^A,C^A][B,DB]) |!pp! (.[C^Ac]2 .[CAc]2) [CAc]4 | %6
!>(! ([EGe]3!>)! [DFd] [CEc]2 [B,DB][C^Ac]) | (.[DBd]2 .[DBd]2) [DBd]4 | %8
 [DBd]3 [DBd] [Fdf]3 [Fdf] |!f!!>(! [Afa]3 [Afa]!>)!!mf! [Fdf]3!mp! [Fdf] | %10
!p! ([DFd]2 [EFc][DFB]!>(! [F^A]4)!>)! | %11
!pp! [DFB][K:bass]!<(! [F,D][E,F,C][D,F,B,]!<)!!>(! [F,^A,]4!>)! | [D,F,B,]8 | %13
[K:treble]!ppp! (.[FB]3 .[FB] .[FB]3 .[FB]) | (.[GB]3 .[GA] .[GB]3 .[G=c]) | %15
 [FB]3 [FB] [FB]3 [FB] | [GB]3 [GA] [GB]3 [GA] | [FB]3 [=DGB] [DGB]2 [DGB]2 | %18
 (([=CGA]2 [DGB]2)) (([EGc]3 [DGB])) |!f!!>(! [=FGd]2 [EG=c]2!>)!!mp! A4 | %20
 [DGB]3!<(! [DGB]!<)!!>(! [=FGBd]2 [EG=c]2!>)! | G2 ^F2 [DGB]3 G | %22
!pp!!>(! ([EGe]3 [DGd])!>)! [=C=c][Dd][Cc][Dd] |!pp!!>(! ([EGe]3 [DGd])!>)! [=C=c]>[Dd][Cc][Dd] | %24
!>(! (([EGe]3!>)! [DGd]))!<(! [=CG=c]([Ece][=Fd=f]!<)![Geg]) | %25
!>(! ([A=fa]3!>)!!p! [Geg]"_cresc." [=Ff][Geg][Ff][Geg]) | %26
!>(! ([A=fa]3!>)! [Geg] [=Ff][Geg][Ff][Geg]) |!>(! ([A=fa]3!>)! [Geg] [=Ff][Geg][Ff][Afa]) | %28
!ff!!>(! [Geg]4-!>)!!p! ([Geg]!p![A^fa]"_dim."[Bgb][^df^d']) | %29
!pp! ([ege']4- ([ege'])[^db][ege'][db]) | ([ege']3 [^db] [ege'][db][ege'][db]) |!<(! [ege']8!<)! | %32
!f!!>(! x4!>)!!p! =c4 | x4"_cresc." d4 | [B,D=F]4[K:bass] (D2 ^C2) | %35
[K:treble] [CEG]>!>(![CEG][CEG]>!>)![CEG] ([EG]2"_dim." [^DF]2-) | [B,DF]4 z4 | %37
 ([=DF=d]3 [CEc] [B,DB]2 [^A,C^A][B,DB]) | (.[C^Ac]2 .[CAc]2) [CAc]4 | %39
!>(! ([EGe]3!>)! [DFd] [CEc]2 [B,DB][C^Ac]) | (.[DBd]2 .[DBd]2) [DBd]4 | %41
!<(! [DBd]3 [DBd] [Fdf]3 [Fdf]!<)! |!f!!>(! [Afa]3!>)!!mf! [Afa]!mp! [Fdf]3 [Fdf] | %43
!pp! (.[Fd]2 .[EFc].[DFB])!>(! [F^A]4!>)! | [DFB][K:bass] x3!>(! [F,^A,]4!>)! | %45
 [D,F,B,]([D,F,B,][E,F,C][F,D])!>(! ([^A,E]3!>)! [F,D]/[E,C]/) | %46
 [D,F,B,]3[K:treble] ([^A,F] [B,DB][A,F][B,DB][A,F] | [B,DB]3) ([^Af]"_dim." [Bdb][Af][Bdb][Af]) | %48
 [Bdb]8- |!ppp! [Bdb]4 z4 |] %50
V:4
!pp! [B,,,F,,]4 z (.[B,,,F,,].[F,,,F,,].[B,,,F,,]) | E,,4 (.E,,2 .E,,2) | [=C,,G,,=C,]6 (C,,E,,) | %3
 [F,,,F,,]4 [B,,,F,,]4 | [B,,,F,,]4 z (.[B,,,F,,].[F,,,F,,].[B,,,F,,]) | %5
 [F,,,F,,]4 (.[F,,,F,,]2 .[F,,,F,,]2) | [F,,,F,,]4 z (.[F,,,F,,].[B,,,F,,].[F,,,F,,]) | %7
 [B,,,F,,]4 [B,,,F,,]2 [B,,,F,,]2 |!<(! [B,,,F,,]3 [B,,,F,,] [A,,,F,,]3 [A,,,F,,]!<)! | %9
 [F,,,F,,]3 [F,,,F,,] [A,,,F,,]3 [A,,,F,,] | [B,,,F,,]2 (.[F,,,F,,].[B,,,F,,]) [F,,,F,,]4 | %11
 [B,,,F,,]2 (.[F,,,F,,].[B,,,F,,]) [F,,,F,,]4 | F,,8 | %13
 (.[B,,,^D,,]3 .[B,,,D,,] .[B,,,D,,]3 .[B,,,D,,]) | %14
 (.[B,,,E,,]3 .[B,,,E,,] .[B,,,E,,]3 .[B,,,E,,]) | [B,,,^D,,]3 [B,,,D,,] [B,,,D,,]3 [B,,,D,,] | %16
 [B,,,E,,]3 [B,,,E,,] [B,,,E,,]3 [B,,,E,,] | [B,,,^D,,]3!f! [G,,,G,,] [G,,,G,,]2 [G,,,G,,]2 | %18
 [G,,,G,,]2!<(! [G,,,G,,]2 [G,,,G,,]4!<)! | [G,,,G,,]2 [=C,,=C,]2 [D,,D,]4 | %20
 [G,,,G,,]3 [G,,,G,,] [G,,,G,,]2 [=C,,=C,]2 | [D,,D,]4 [G,,,G,,]3 z | %22
 [=C,,G,,=C,]4 [C,,G,,C,]2 [C,,G,,C,]2 | [=C,,G,,=C,]6 [C,,G,,C,]2 | %24
 [=C,,G,,=C,]4- [C,,G,,C,](.C,.[B,,C,].[_B,,C,]) | %25
 ([A,,=C,]3 [_B,,C,] [A,,C,][B,,C,][A,,C,][B,,C,]) | %26
 ([A,,=C,]3 [_B,,C,] [A,,C,][B,,C,][A,,C,])[B,,C,] | %27
 ([A,,=C,]3 [_B,,C,] [A,,C,][B,,C,][A,,C,]A,,) | =B,,4- B,,(.B,,.B,,.B,,) | %29
 [E,,B,,]4- ([E,,B,,][F,,B,,][E,,B,,][F,,B,,]) | %30
 ([E,,B,,]3 [F,,B,,] [E,,B,,][F,,B,,][E,,B,,][F,,B,,]) | !///-!E,,2 E,2 !///-!E,,2 E,2 | %32
 !///-!E,,2 E,2 !///-!=F,,2 =F,2 |!f!!>(! !///-!^F,,2!>)! ^F,2 !///-!G,,2 G,2 | %34
!>(! !///-!^G,,,2!>)!"^cresc." ^G,,2 !///-!A,,,2 A,,2 |!ff! !///-!^A,,,2 ^A,,2 !///-!B,,,2 B,,2 | %36
 !///-!B,,,2 B,,2 !///-!B,,,2 F,,2 | %37
!pp!!>(! !///-!B,,,2!>)! F,,2"^simile" !///![B,,,F,,]2 !//![F,,,F,,]!//![B,,,F,,] | %38
 !///-!F,,,2 F,,2 !///-!F,,,2 F,,2 | !///-!F,,,2 F,,2 !///![F,,,F,,]2 !//![B,,,F,,]!//![F,,,F,,] | %40
 !///-!B,,,2 F,,2 !///-!B,,,2 F,,2 | !///-!B,,,2 F,,2 !///-!A,,,2 F,,2 | %42
 !///-!F,,,2 F,,2 !///-!A,,,2 F,,2 | !///![B,,,F,,]2 !//![F,,,F,,]!//![B,,,F,,] !///-!F,,,2 F,,2 | %44
 !///![B,,,F,,]2 !//![F,,,F,,]!//![B,,,F,,] !///-!F,,,2 F,,2 | %45
 !///![B,,,F,,]2 !//![F,,,F,,]!//![B,,,F,,] !///-!F,,,2 F,,2 | %46
 !///![B,,,F,,]3 !//![C,,F,,] !//![B,,,F,,]!//![C,,F,,]!//![B,,,F,,]!//![C,,F,,] | %47
 !///![B,,,F,,]3 !//![C,,F,,] !//![B,,,F,,]!//![C,,F,,]!//![B,,,F,,]!//![C,,F,,] | %48
 !///-!B,,,2 F,,2 (.B,,,/.B,,,/.B,,,/.B,,,/ .B,,,/.B,,,/.B,,,/.B,,,/) | B,,,4 z4 |] %50
V:5
 x8 | x8 | x8 | x8 | x8 | x8 | x8 | x8 | x8 | x8 | x4 (C3 D/E/) | x2[K:bass] x2 (C,3 D,/E,/) | x8 | %13
[K:treble] x8 | x8 | x8 | x8 | x8 | x8 | x4 D4 | x8 | D4 x4 | x4 G2 G2 | x4 G2 G2 | x8 | x8 | x8 | %27
 x8 | x8 | x8 | x8 | x8 | [G_B_d]4 =C4 | x4 D4 | x4[K:bass] [E,E]4 |[K:treble] x4 B,4- | x8 | x8 | %38
 x8 | x8 | x8 | x8 | x8 | x4 (C3 D/E/) | z[K:bass] ([F,D][E,F,C][D,F,B,]) (C,3 D,/E,/) | %45
 x4 x2 x F, | x3[K:treble] x5 | x8 | x8 | x8 |] %50
V:6
 x8 | x8 | x8 | x8 | x8 | x8 | x8 | x8 | x8 | x8 | x8 | x8 | B,,,3 B,,, B,,,3 B,,, | x8 | x8 | x8 | %16
 x8 | x8 | x8 | x8 | x8 | x8 | x8 | x8 | x8 | x8 | x8 | x8 | x8 | x8 | x8 | x8 | x8 | x8 | x8 | %35
 x8 | x8 | x8 | x8 | x8 | x8 | x8 | x8 | x8 | x8 | x8 | x8 | x8 | x8 | x8 |] %50
V:7
 x8 | x8 | x8 | x8 | x8 | x8 | x8 | x8 | x8 | x8 | x8 | x[K:bass] x7 | x8 |[K:treble] x8 | x8 | %15
 x8 | x8 | x8 | x8 | x4 G2 ^F2 | x8 | A4 x4 | x8 | x8 | x8 | x8 | x8 | x8 | x8 | x8 | x8 | x8 | %32
 x4 (_B2 A2) | [=A=c_e]4 (c2 =B2) | x4[K:bass] x4 |[K:treble] x8 | x8 | x8 | x8 | x8 | x8 | x8 | %42
 x8 | x8 | x[K:bass] x7 | x8 | x3[K:treble] x5 | x8 | x8 | x8 |] %50

